Unicodia/Resources/Scripts/1720.svg

<?xml version="1.0" encoding="UTF-8" standalone="no"?>
<!-- Created with Inkscape (http://www.inkscape.org/) -->

<svg
   width="16"
   height="16"
   viewBox="0 0 16 16"
   version="1.1"
   id="svg5"
   inkscape:version="1.2.1 (9c6d41e410, 2022-07-14)"
   sodipodi:docname="1720.svg"
   inkscape:export-filename="..\0000.png"
   inkscape:export-xdpi="96"
   inkscape:export-ydpi="96"
   xmlns:inkscape="http://www.inkscape.org/namespaces/inkscape"
   xmlns:sodipodi="http://sodipodi.sourceforge.net/DTD/sodipodi-0.dtd"
   xmlns="http://www.w3.org/2000/svg"
   xmlns:svg="http://www.w3.org/2000/svg">
  <sodipodi:namedview
     id="namedview7"
     pagecolor="#ffffff"
     bordercolor="#666666"
     borderopacity="1.0"
     inkscape:pageshadow="2"
     inkscape:pageopacity="0"
     inkscape:pagecheckerboard="0"
     inkscape:document-units="px"
     showgrid="true"
     width="16mm"
     units="px"
     inkscape:zoom="22.627417"
     inkscape:cx="22.539029"
     inkscape:cy="13.214058"
     inkscape:window-width="1680"
     inkscape:window-height="998"
     inkscape:window-x="-8"
     inkscape:window-y="-8"
     inkscape:window-maximized="1"
     inkscape:current-layer="layer1"
     showguides="true"
     inkscape:guide-bbox="true"
     inkscape:snap-bbox="true"
     inkscape:bbox-paths="true"
     inkscape:bbox-nodes="true"
     inkscape:snap-global="true"
     inkscape:showpageshadow="2"
     inkscape:deskcolor="#ffffff">
    <inkscape:grid
       type="xygrid"
       id="grid828"
       originx="0"
       originy="0" />
  </sodipodi:namedview>
  <defs
     id="defs2" />
  <g
     inkscape:label="Layer 1"
     inkscape:groupmode="layer"
     id="layer1">
    <rect
       style="opacity:1;fill:#c8ffc8;stroke:none;stroke-width:4.4376;stroke-linejoin:bevel;stop-color:#000000;fill-opacity:1"
       id="rect691"
       width="16"
       height="16"
       x="0"
       y="0" />
    <path
       d="M 0.8232233,12.89951 3.0834613,3.1002463 H 4.3219478 L 3.1144235,8.2162656 Q 2.9596125,8.8654282 2.7970612,9.4836785 2.6345099,10.101929 2.4796991,10.611985 2.8357639,10.148297 3.2924558,9.5532317 3.7491477,8.9581658 4.1361747,8.4326531 L 8.1612564,3.1002463 H 9.384262 L 9.059159,8.8808845 Q 9.043679,9.3600284 8.997229,9.9009968 8.950779,10.441966 8.8579,11.029303 9.167521,10.457422 9.453921,10.001463 9.740323,9.5455031 10.096388,8.9890783 l 3.792865,-5.888832 h 1.315892 L 8.888867,12.89951 H 7.6658615 L 7.9754836,6.948853 Q 7.9909632,6.6551842 8.0141897,6.2687779 8.0374093,5.8823716 8.0761155,5.4959653 8.1148216,5.109559 8.1457809,4.8468028 7.9290459,5.1868403 7.5807212,5.6814403 7.2323972,6.1760404 6.8298886,6.6860967 L 2.0462287,12.89951 Z"
       id="path299"
       style="fill:#008000;stroke:#008000;stroke-width:0.2;stroke-dasharray:none" />
  </g>
</svg>

<svg height="16" viewBox="0 0 16 16" width="16" xmlns="http://www.w3.org/2000/svg"><path d="m0 0h16v16h-16z" fill="#c8ffc8"/><path d="m.82 12.9 2.26-9.8h1.24l-1.21 5.12q-.15.65-.31 1.26-.17.62-.32 1.13.36-.46.81-1.06.46-.59.85-1.12l4.02-5.33h1.22l-.32 5.78q-.02.48-.06 1.02-.05.54-.14 1.13.31-.57.59-1.03.29-.45.65-1.01l3.79-5.89h1.32l-6.32 9.8h-1.22l.31-5.95q.01-.29.03-.68.03-.39.07-.77.03-.39.07-.65-.22.34-.57.83-.35.5-.75 1.01l-4.78 6.21z" fill="#008000" stroke="#008000" stroke-width=".2"/></svg>
